dist/flags/s/608.svg

<svg width="16" height="12" viewBox="0 0 16 12" fill="none" xmlns="http://www.w3.org/2000/svg">
<mask id="mask0" mask-type="alpha" maskUnits="userSpaceOnUse" x="0" y="0" width="16" height="12">
<rect width="16" height="12" fill="white"/>
</mask>
<g mask="url(#mask0)">
<path fill-rule="evenodd" clip-rule="evenodd" d="M0 0V12H16V0H0Z" fill="#BF2714"/>
<mask id="mask1" mask-type="alpha" maskUnits="userSpaceOnUse" x="0" y="0" width="16" height="12">
<path fill-rule="evenodd" clip-rule="evenodd" d="M0 0V12H16V0H0Z" fill="white"/>
</mask>
<g mask="url(#mask1)">
<path fill-rule="evenodd" clip-rule="evenodd" d="M0 -1V6H16V-1H0Z" fill="#3D58DB"/>
</g>
<path fill-rule="evenodd" clip-rule="evenodd" d="M0 0V12L9 6L0 0Z" fill="#F7FCFF"/>
<mask id="mask2" mask-type="alpha" maskUnits="userSpaceOnUse" x="0" y="0" width="9" height="12">
<path fill-rule="evenodd" clip-rule="evenodd" d="M0 0V12L9 6L0 0Z" fill="white"/>
</mask>
<g mask="url(#mask2)">
<path fill-rule="evenodd" clip-rule="evenodd" d="M6.80253 5.46013L7.44047 5.70614L7.82002 5.25948L7.83009 5.85686L8.41722 6.04783L7.79922 6.2576L7.83995 6.80655L7.43291 6.38604L6.7931 6.50774L7.17084 6.02342L6.80253 5.46013Z" fill="#FECA00"/>
<path fill-rule="evenodd" clip-rule="evenodd" d="M0.802526 8.46013L1.38891 8.71938L1.82002 8.25948L1.77853 8.8701L2.41722 9.04783L1.74766 9.27084L1.83995 9.80655L1.37377 9.42376L0.793095 9.50774L1.11928 9.03665L0.802526 8.46013Z" fill="#FECA00"/>
<path fill-rule="evenodd" clip-rule="evenodd" d="M0.802526 2.46013L1.4514 2.69924L1.82002 2.25948L1.84103 2.84996L2.41722 3.04783L1.81016 3.2507L1.83995 3.80655L1.43626 3.40362L0.793095 3.50774L1.18178 3.01651L0.802526 2.46013Z" fill="#FECA00"/>
<path fill-rule="evenodd" clip-rule="evenodd" d="M4.06075 7.26636C4.7511 7.26636 5.31075 6.70671 5.31075 6.01636C5.31075 5.326 4.7511 4.76636 4.06075 4.76636C3.37039 4.76636 2.81075 5.326 2.81075 6.01636C2.81075 6.70671 3.37039 7.26636 4.06075 7.26636Z" fill="#FECA00"/>
<path fill-rule="evenodd" clip-rule="evenodd" d="M3.91298 4.11983L3.98015 4.92283C3.98657 4.97159 4.02409 5.01044 4.0726 5.01856C4.13353 5.02876 4.1912 4.98763 4.2014 4.92669L4.29006 4.12641C4.29161 4.1171 4.29248 4.10769 4.29264 4.09826C4.29448 3.99297 4.21062 3.90614 4.10534 3.9043C4.0959 3.90413 4.08647 3.90467 4.07711 3.9059C3.97272 3.91965 3.89923 4.01543 3.91298 4.11983ZM3.70393 4.50791L3.80773 4.85722C3.81737 4.88965 3.84975 4.90973 3.88638 4.90327C3.9164 4.89618 3.93498 4.86609 3.92789 4.83607L3.84505 4.48549C3.83552 4.44517 3.79646 4.41907 3.75556 4.42569C3.75283 4.42613 3.75013 4.42675 3.74747 4.42753C3.71325 4.4377 3.69376 4.47369 3.70393 4.50791ZM4.26534 4.87178C4.2572 4.90154 4.27472 4.93225 4.30775 4.94118C4.34086 4.94813 4.37392 4.92919 4.38468 4.89712L4.50062 4.55164C4.51197 4.51779 4.49375 4.48115 4.4599 4.46979C4.45728 4.46891 4.4546 4.4682 4.45188 4.46766C4.41124 4.45962 4.3713 4.48435 4.36037 4.52431L4.26534 4.87178ZM5.3039 4.5207L4.74504 5.1378C4.7151 5.17682 4.71416 5.23082 4.74272 5.27086C4.77859 5.32116 4.84846 5.33286 4.89876 5.29698L5.56587 4.79198C5.57356 4.78651 5.58082 4.78046 5.58761 4.77391C5.66335 4.70076 5.66546 4.58006 5.59231 4.50431C5.58576 4.49753 5.57871 4.49123 5.57122 4.48549C5.48768 4.42139 5.36799 4.43716 5.3039 4.5207ZM5.13389 5.83067L5.96837 5.76609C6.07276 5.75234 6.16854 5.82582 6.18229 5.93022C6.18352 5.93958 6.18406 5.94901 6.18389 5.95844C6.18206 6.06373 6.09522 6.14759 5.98993 6.14575C5.9805 6.14558 5.97109 6.14472 5.96178 6.14316L5.13003 6.05192C5.06909 6.04172 5.02796 5.98405 5.03816 5.92312C5.04628 5.87461 5.08513 5.83709 5.13389 5.83067ZM5.56697 7.15976L4.91891 6.59556C4.87989 6.56562 4.82589 6.56468 4.78585 6.59324C4.73555 6.62911 4.72386 6.69898 4.75973 6.74928L5.29569 7.42174C5.30117 7.42942 5.30721 7.43669 5.31376 7.44348C5.38691 7.51922 5.50761 7.52133 5.58336 7.44818C5.59015 7.44163 5.59644 7.43458 5.60218 7.42709C5.66628 7.34355 5.65052 7.22386 5.56697 7.15976ZM4.22604 6.98441L4.27552 7.82692C4.28927 7.93132 4.21579 8.0271 4.11139 8.04085C4.10203 8.04208 4.0926 8.04261 4.08316 8.04245C3.97788 8.04061 3.89402 7.95377 3.89586 7.84849C3.89602 7.83905 3.89689 7.82964 3.89845 7.82034L4.00479 6.98055C4.01499 6.91961 4.07266 6.87848 4.1336 6.88868C4.18211 6.8968 4.21962 6.93565 4.22604 6.98441ZM2.91051 7.43957L3.46115 6.76943C3.49109 6.73041 3.49203 6.67641 3.46348 6.63637C3.4276 6.58607 3.35774 6.57438 3.30744 6.61025L2.64853 7.16828C2.64085 7.17376 2.63358 7.1798 2.62679 7.18636C2.55105 7.25951 2.54894 7.38021 2.62209 7.45595C2.62864 7.46274 2.63569 7.46903 2.64318 7.47478C2.72672 7.53888 2.84641 7.52311 2.91051 7.43957ZM3.07231 6.07656L2.2327 6.14575C2.1283 6.1595 2.03253 6.08601 2.01878 5.98162C2.01755 5.97226 2.01701 5.96283 2.01717 5.95339C2.01901 5.84811 2.10585 5.76425 2.21113 5.76609C2.22057 5.76625 2.22998 5.76712 2.23928 5.76867L3.07617 5.85531C3.13711 5.86551 3.17824 5.92318 3.16804 5.98412C3.15992 6.03263 3.12107 6.07014 3.07231 6.07656ZM2.57517 4.76103L3.28728 5.31167C3.3263 5.34161 3.3803 5.34255 3.42034 5.314C3.47064 5.27812 3.48234 5.20826 3.44646 5.15796L2.84645 4.49905C2.84097 4.49137 2.83493 4.4841 2.82838 4.47731C2.75523 4.40157 2.63453 4.39946 2.55878 4.47261C2.55199 4.47916 2.5457 4.48621 2.53996 4.4937C2.47586 4.57724 2.49162 4.69693 2.57517 4.76103ZM4.66951 4.9695L4.84311 4.64909C4.86012 4.6177 4.89935 4.60604 4.93074 4.62305C4.93317 4.62437 4.93552 4.62584 4.93776 4.62746C4.97136 4.6517 4.98052 4.69778 4.95875 4.73302L4.76943 5.0395C4.75322 5.06574 4.7188 5.07388 4.69256 5.05767C4.6621 5.03634 4.6534 4.99924 4.66951 4.9695ZM5.54881 5.55445L5.19949 5.65825C5.16706 5.66789 5.14698 5.70027 5.15344 5.7369C5.16054 5.76692 5.19063 5.7855 5.22065 5.77841L5.57122 5.69556C5.61154 5.68604 5.63765 5.64698 5.63103 5.60608C5.63058 5.60335 5.62997 5.60065 5.62918 5.59799C5.61901 5.56377 5.58303 5.54428 5.54881 5.55445ZM5.08722 6.52003L5.40762 6.69363C5.43901 6.71064 5.45067 6.74987 5.43366 6.78126C5.43234 6.78369 5.43087 6.78604 5.42925 6.78828C5.40501 6.82188 5.35894 6.83104 5.32369 6.80927L5.01721 6.61995C4.99097 6.60374 4.98284 6.56932 4.99905 6.54308C5.02038 6.51261 5.05747 6.50392 5.08722 6.52003ZM4.50227 7.39933L4.39846 7.05001C4.38882 7.01758 4.35644 6.9975 4.31982 7.00396C4.2898 7.01106 4.27121 7.04114 4.2783 7.07117L4.36115 7.42174C4.37068 7.46206 4.40974 7.48817 4.45063 7.48155C4.45337 7.4811 4.45607 7.48049 4.45872 7.4797C4.49294 7.46953 4.51244 7.43355 4.50227 7.39933ZM3.53668 6.93774L3.36308 7.25814C3.34608 7.28953 3.30685 7.30119 3.27546 7.28418C3.27302 7.28286 3.27068 7.28139 3.26843 7.27977C3.23483 7.25553 3.22567 7.20946 3.24745 7.17421L3.43676 6.86773C3.45297 6.84149 3.48739 6.83336 3.51363 6.84957C3.5441 6.8709 3.5528 6.90799 3.53668 6.93774ZM2.65739 6.35279L3.00671 6.24898C3.03913 6.23934 3.05921 6.20696 3.05275 6.17034C3.04566 6.14032 3.01557 6.12173 2.98555 6.12882L2.63497 6.21167C2.59465 6.2212 2.56855 6.26026 2.57517 6.30115C2.57561 6.30389 2.57623 6.30659 2.57701 6.30924C2.58718 6.34346 2.62317 6.36296 2.65739 6.35279ZM3.11898 5.3872L2.79857 5.2136C2.76718 5.1966 2.75552 5.15736 2.77253 5.12598C2.77385 5.12354 2.77532 5.1212 2.77694 5.11895C2.80118 5.08535 2.84726 5.07619 2.8825 5.09797L3.18898 5.28728C3.21523 5.30349 3.22336 5.33791 3.20715 5.36415C3.18582 5.39462 3.14872 5.40332 3.11898 5.3872ZM4.98279 5.30336C4.956 5.31865 4.94667 5.35276 4.96371 5.38243C4.98221 5.41075 5.01898 5.42074 5.04926 5.40567L5.37553 5.24336C5.4075 5.22746 5.42052 5.18866 5.40462 5.15669C5.40338 5.15422 5.40199 5.15182 5.40045 5.14952C5.3774 5.1151 5.33167 5.10433 5.29569 5.12486L4.98279 5.30336ZM5.11553 6.15827C5.12446 6.12524 5.15518 6.10772 5.18493 6.11586L5.5324 6.21089C5.57237 6.22182 5.59709 6.26176 5.58905 6.3024C5.58851 6.30512 5.5878 6.3078 5.58692 6.31042C5.57556 6.34426 5.53892 6.36249 5.50508 6.35114L5.1596 6.2352C5.12752 6.22444 5.10859 6.19138 5.11553 6.15827ZM4.75335 6.83331C4.73806 6.80652 4.70395 6.79719 4.67429 6.81423C4.64597 6.83273 4.63598 6.8695 4.65104 6.89978L4.81336 7.22605C4.82926 7.25802 4.86806 7.27104 4.90002 7.25514C4.9025 7.2539 4.90489 7.25251 4.90719 7.25097C4.94162 7.22792 4.95238 7.18219 4.93185 7.14621L4.75335 6.83331ZM3.89845 6.96605C3.93147 6.97498 3.94899 7.0057 3.94086 7.03545L3.84583 7.38292C3.8349 7.42289 3.79495 7.44761 3.75431 7.43957C3.75159 7.43903 3.74892 7.43832 3.74629 7.43744C3.71245 7.42608 3.69422 7.38944 3.70558 7.3556L3.82151 7.01011C3.83227 6.97804 3.86534 6.95911 3.89845 6.96605ZM3.2234 6.60387C3.2502 6.58858 3.25953 6.55447 3.24249 6.52481C3.22399 6.49649 3.18722 6.4865 3.15693 6.50156L2.83066 6.66388C2.7987 6.67978 2.78568 6.71858 2.80158 6.75054C2.80281 6.75302 2.8042 6.75541 2.80574 6.75771C2.82879 6.79214 2.87452 6.8029 2.91051 6.78237L3.2234 6.60387ZM3.09066 5.74897C3.08174 5.78199 3.05102 5.79951 3.02126 5.79138L2.67379 5.69635C2.63383 5.68542 2.6091 5.64547 2.61714 5.60483C2.61768 5.60211 2.61839 5.59944 2.61927 5.59681C2.63063 5.56297 2.66727 5.54474 2.70112 5.5561L3.0466 5.67203C3.07867 5.68279 3.09761 5.71586 3.09066 5.74897ZM3.45284 5.07392C3.46813 5.10072 3.50224 5.11005 3.53191 5.09301C3.56023 5.07451 3.57022 5.03774 3.55515 5.00745L3.39284 4.68118C3.37694 4.64922 3.33814 4.6362 3.30617 4.6521C3.3037 4.65333 3.3013 4.65472 3.299 4.65626C3.26458 4.67931 3.25381 4.72504 3.27434 4.76103L3.45284 5.07392Z" fill="#FECA00"/>
</g>
</g>
</svg>

<svg width="16" height="12" fill="none" xmlns="http://www.w3.org/2000/svg">
  <mask id="a" maskUnits="userSpaceOnUse" x="0" y="0" width="16" height="12">
    <path fill="#fff" d="M0 0h16v12H0z"/>
  </mask>
  <g mask="url(#a)">
    <path fill-rule="evenodd" clip-rule="evenodd" d="M0 0v12h16V0H0z" fill="#BF2714"/>
    <mask id="b" maskUnits="userSpaceOnUse" x="0" y="0" width="16" height="12">
      <path fill-rule="evenodd" clip-rule="evenodd" d="M0 0v12h16V0H0z" fill="#fff"/>
    </mask>
    <g mask="url(#b)">
      <path fill-rule="evenodd" clip-rule="evenodd" d="M0-1v7h16v-7H0z" fill="#3D58DB"/>
    </g>
    <path fill-rule="evenodd" clip-rule="evenodd" d="M0 0v12l9-6-9-6z" fill="#F7FCFF"/>
    <mask id="c" maskUnits="userSpaceOnUse" x="0" y="0" width="9" height="12">
      <path fill-rule="evenodd" clip-rule="evenodd" d="M0 0v12l9-6-9-6z" fill="#fff"/>
    </mask>
    <g mask="url(#c)" fill-rule="evenodd" clip-rule="evenodd" fill="#FECA00">
      <path d="M6.803 5.46l.638.246.38-.447.01.598.586.19-.618.21.041.55-.407-.421-.64.122.378-.485-.368-.563zm-6 3l.586.26.431-.46-.041.61.638.178-.67.223.093.535-.466-.382-.58.084.325-.471-.316-.577zm0-6l.648.24.37-.44.02.59.576.198-.607.203.03.555-.404-.402-.643.104.389-.492-.38-.556zM4.06 7.266a1.25 1.25 0 100-2.5 1.25 1.25 0 000 2.5z"/>
      <path d="M3.913 4.12l.067.803a.112.112 0 00.221.004l.09-.8a.191.191 0 00-.214-.221.19.19 0 00-.164.214zm-.21.388l.105.35c.01.032.042.052.078.045a.056.056 0 00.042-.067l-.083-.35a.079.079 0 00-.098-.058.065.065 0 00-.043.08zm.562.364c-.008.03.01.06.043.07a.067.067 0 00.077-.045l.116-.345a.065.065 0 00-.05-.084.079.079 0 00-.09.056l-.096.348zm1.039-.351l-.559.617a.112.112 0 00.154.159l.667-.505a.19.19 0 10-.262-.271zm-.17 1.31l.834-.065a.19.19 0 11-.006.377l-.832-.091a.112.112 0 01.004-.221zm.433 1.329l-.648-.564a.112.112 0 00-.16.153l.537.673a.19.19 0 10.271-.262zm-1.341-.176l.05.843a.19.19 0 11-.378-.007l.107-.84a.112.112 0 01.221.004zm-1.315.456l.55-.67a.112.112 0 00-.154-.16l-.658.558a.19.19 0 10.262.272zm.161-1.363l-.84.069a.19.19 0 11.007-.377l.837.086a.112.112 0 01-.004.222zM2.575 4.76l.712.55a.112.112 0 00.16-.153l-.6-.659a.19.19 0 10-.271.262zm2.095.209l.173-.32a.065.065 0 01.095-.023c.033.025.043.07.02.106l-.189.307a.056.056 0 01-.076.018.067.067 0 01-.023-.088zm.879.584l-.35.104a.067.067 0 00-.046.079c.008.03.038.049.068.041l.35-.082a.079.079 0 00.058-.098.065.065 0 00-.08-.044zm-.462.966l.32.174a.065.065 0 01.022.094.079.079 0 01-.105.021l-.307-.189A.056.056 0 015 6.543a.067.067 0 01.088-.023zm-.585.88l-.104-.35a.067.067 0 00-.078-.046.056.056 0 00-.042.067l.083.35a.079.079 0 00.098.059.065.065 0 00.043-.08zm-.965-.462l-.174.32a.065.065 0 01-.095.022.079.079 0 01-.02-.106l.189-.306a.056.056 0 01.077-.018c.03.02.039.058.023.088zm-.88-.585l.35-.104a.067.067 0 00.046-.079.056.056 0 00-.067-.041l-.351.083a.079.079 0 00-.058.097c.01.034.046.054.08.044zm.462-.966l-.32-.173a.065.065 0 01-.022-.095.079.079 0 01.105-.021l.307.19c.026.016.034.05.018.076a.067.067 0 01-.088.023zm1.864-.084c-.027.016-.036.05-.02.08a.067.067 0 00.086.023l.327-.163A.065.065 0 005.4 5.15a.079.079 0 00-.104-.025l-.313.178zm.133.855a.056.056 0 01.069-.042l.347.095a.079.079 0 01.055.1.065.065 0 01-.082.04l-.345-.116a.067.067 0 01-.044-.077zm-.363.675a.057.057 0 00-.079-.019.067.067 0 00-.023.086l.162.326a.065.065 0 00.094.025.079.079 0 00.025-.105l-.179-.313zm-.855.133c.033.009.051.04.043.07l-.095.347a.079.079 0 01-.1.054.065.065 0 01-.04-.081l.116-.346a.067.067 0 01.076-.044zm-.675-.362c.027-.015.037-.05.02-.08a.067.067 0 00-.086-.022l-.326.162a.065.065 0 00-.025.094.079.079 0 00.105.024l.312-.178zm-.132-.855c-.01.033-.04.05-.07.042l-.347-.095a.079.079 0 01-.055-.1.065.065 0 01.082-.04l.346.116c.032.01.05.044.044.077zm.362-.675c.015.027.05.036.079.019a.067.067 0 00.023-.086l-.162-.326a.065.065 0 00-.094-.025.079.079 0 00-.025.105l.179.313z"/>
    </g>
  </g>
</svg>
